dist/img/svg/icon-viber.svg

<svg width="15" height="17" viewBox="0 0 15 17" fill="none" xmlns="http://www.w3.org/2000/svg">
<path d="M3.62159 15.3891C3.62159 15.153 3.61055 14.9157 3.62527 14.6796C3.63754 14.4886 3.56884 14.4022 3.39589 14.3429C2.31642 13.9713 1.47493 13.2799 0.902079 12.2401C0.503414 11.5163 0.269121 10.7307 0.162401 9.90763C-0.0755712 8.06284 -0.0706646 6.22064 0.302241 4.39391C0.487467 3.4857 0.841973 2.65103 1.42954 1.9415C1.8552 1.42548 2.39861 1.08619 2.9825 0.816567C3.96628 0.362465 5.00895 0.161215 6.07369 0.0567203C6.84894 -0.0193933 7.62542 -0.00778274 8.39944 0.0270489C9.6948 0.0863918 10.9546 0.321183 12.1518 0.88365C13.3147 1.42935 14.0593 2.35303 14.4727 3.59794C14.7695 4.49066 14.9069 5.41435 14.967 6.3548C15.0492 7.64873 14.9731 8.93235 14.7916 10.2108C14.6517 11.1964 14.323 12.1098 13.7183 12.8941C13.1969 13.5701 12.5345 14.032 11.7568 14.3119C10.6271 14.7196 9.46051 14.9079 8.26942 14.9724C7.6475 15.006 7.03049 14.9763 6.41225 14.9505C6.30308 14.9453 6.23316 14.9827 6.16692 15.0653C5.78665 15.5336 5.40393 16.0006 5.01876 16.465C4.88015 16.6327 4.7354 16.7966 4.54772 16.9062C4.19199 17.1139 3.82644 16.9668 3.69396 16.5618C3.56884 16.1786 3.63631 15.78 3.62159 15.3891ZM4.20303 16.3373C4.25087 16.2999 4.26804 16.2909 4.28154 16.2754C4.92063 15.5297 5.56708 14.7918 6.1939 14.0358C6.39262 13.7972 6.59134 13.6824 6.90905 13.6965C8.30744 13.7585 9.68499 13.6011 11.0331 13.1883C11.6133 13.0102 12.1334 12.729 12.5652 12.2788C13.1748 11.6415 13.4938 10.8494 13.6324 9.97729C13.8188 8.80076 13.8888 7.61648 13.8066 6.42318C13.7489 5.5898 13.6287 4.77061 13.3453 3.98625C13.0853 3.2651 12.7014 2.64071 12.0451 2.24725C11.4833 1.91054 10.881 1.68736 10.2517 1.54158C9.00296 1.25003 7.7395 1.20617 6.4699 1.27712C5.59407 1.32614 4.73908 1.4874 3.91108 1.79959C2.7249 2.24725 1.94106 3.09353 1.56938 4.36424C1.37557 5.02604 1.27008 5.70203 1.24064 6.39221C1.19034 7.5752 1.14987 8.7569 1.38048 9.92698C1.68469 11.4712 2.44645 12.6322 3.90986 13.1715C4.15151 13.2605 4.21162 13.3831 4.20794 13.6333C4.19444 14.5209 4.20303 15.4097 4.20303 16.3373Z" fill="#645CAC"/>
<path d="M9.75563 12.0787C9.62929 12.0826 9.51398 12.0426 9.3999 11.9936C8.12294 11.4453 6.97111 10.688 5.98978 9.66759C4.82322 8.45623 3.94125 7.05006 3.40275 5.41039C3.23224 4.89307 3.33896 4.48284 3.73395 4.14484C3.91304 3.99132 4.09704 3.84167 4.2884 3.70364C4.63922 3.44821 4.9925 3.48433 5.27831 3.81845C5.63895 4.23901 5.96892 4.68795 6.23756 5.18205C6.29522 5.28654 6.33938 5.40136 6.37618 5.51617C6.45836 5.76774 6.42524 5.99737 6.22652 6.18185C6.09404 6.30569 5.95788 6.42567 5.82418 6.54693C5.65981 6.69787 5.61074 6.88493 5.65735 7.1094C5.81559 7.87054 6.26332 8.42784 6.80674 8.91678C7.13057 9.20833 7.48631 9.44312 7.90215 9.56826C8.11804 9.63405 8.291 9.57729 8.42838 9.39539C8.50934 9.28832 8.58785 9.17995 8.66881 9.07416C8.88593 8.78777 9.19995 8.69489 9.50907 8.85744C10.0979 9.16963 10.6094 9.60051 11.0927 10.0662C11.2485 10.2172 11.3294 10.4326 11.2485 10.6571C11.035 11.2557 10.672 11.724 10.115 12.0065C10.0046 12.0632 9.88075 12.0852 9.75563 12.0787Z" fill="#645CAC"/>
<path d="M11.0804 7.43579C11.0448 7.55576 11.1418 7.75185 10.9737 7.76733C10.7872 7.78411 10.8535 7.57383 10.8449 7.46675C10.8044 6.91331 10.7357 6.36762 10.5076 5.86191C9.94208 4.60926 8.99387 3.93069 7.68134 3.81459C7.61387 3.80814 7.54518 3.81201 7.47771 3.80427C7.39553 3.79394 7.30107 3.77975 7.30966 3.66236C7.31702 3.56173 7.40166 3.5527 7.47894 3.54754C7.6703 3.53464 7.86043 3.5656 8.04811 3.59786C9.67589 3.88425 10.878 5.24397 11.0338 6.97137C11.0485 7.12875 11.0657 7.28485 11.0804 7.43579Z" fill="#645CAC"/>
<path d="M10.1298 7.09006C10.1298 7.10425 10.1311 7.11844 10.1298 7.13263C10.1212 7.22939 10.147 7.36226 10.0157 7.36871C9.88081 7.37516 9.8894 7.241 9.88694 7.14553C9.88081 6.90171 9.86241 6.65918 9.78881 6.42568C9.50668 5.53425 8.92156 5.01435 8.0445 4.8518C7.94391 4.83374 7.8421 4.81955 7.74274 4.80149C7.66914 4.7873 7.60903 4.74731 7.6213 4.65958C7.63356 4.57057 7.70348 4.55509 7.77708 4.56154C8.8406 4.6441 9.75569 5.2801 10.0452 6.47599C10.093 6.67595 10.1102 6.88365 10.1421 7.08877C10.1384 7.08877 10.1335 7.09006 10.1298 7.09006Z" fill="#645CAC"/>
<path d="M8.09483 5.61295C8.70817 5.64133 9.20128 6.19606 9.19024 6.8398C9.18902 6.91849 9.19147 7.01267 9.09579 7.02815C8.97558 7.04879 8.9768 6.93784 8.95963 6.85786C8.93019 6.72498 8.91915 6.58695 8.87622 6.46052C8.7695 6.14446 8.54379 5.96385 8.23713 5.89031C8.18438 5.87741 8.12795 5.87612 8.07643 5.86193C7.99547 5.83871 7.87772 5.84 7.90225 5.70455C7.91942 5.59231 8.02246 5.61682 8.09483 5.61295Z" fill="#645CAC"/>
</svg>

<svg width="15" height="17" viewBox="0 0 15 17" fill="none" xmlns="http://www.w3.org/2000/svg"><path d="M3.622 15.39c0-.237-.011-.474.003-.71.013-.191-.056-.278-.23-.337A4.392 4.392 0 01.903 12.24a6.532 6.532 0 01-.74-2.332C-.076 8.063-.07 6.22.302 4.394.487 3.486.842 2.65 1.43 1.94c.425-.516.969-.855 1.552-1.124C3.966.362 5.01.16 6.075.057 6.85-.019 7.626-.008 8.4.027c1.296.06 2.556.294 3.753.857 1.163.545 1.907 1.469 2.32 2.714.298.893.435 1.816.495 2.757a18.853 18.853 0 01-.175 3.856c-.14.985-.469 1.899-1.074 2.683a4.232 4.232 0 01-1.961 1.418c-1.13.408-2.296.596-3.488.66-.622.034-1.239.004-1.857-.021a.269.269 0 00-.245.114c-.38.469-.763.936-1.148 1.4-.139.168-.284.332-.471.441-.356.208-.722.06-.854-.344-.125-.383-.058-.782-.072-1.173zm.581.947c.048-.037.065-.046.079-.062.639-.745 1.285-1.483 1.912-2.24.199-.238.397-.353.715-.338a12.145 12.145 0 004.124-.509c.58-.178 1.1-.459 1.532-.91.61-.636.929-1.429 1.067-2.3.187-1.177.257-2.362.175-3.555-.058-.833-.178-1.652-.462-2.437-.26-.72-.644-1.345-1.3-1.739a6.155 6.155 0 00-1.793-.705c-1.249-.292-2.513-.336-3.782-.265-.876.05-1.73.21-2.559.523-1.186.447-1.97 1.294-2.342 2.564a8.466 8.466 0 00-.328 2.028c-.05 1.183-.091 2.365.14 3.535.304 1.544 1.065 2.705 2.529 3.245.242.088.302.211.298.461-.014.888-.005 1.777-.005 2.704z" fill="#645CAC"/><path d="M9.756 12.079a.831.831 0 01-.356-.085c-1.277-.549-2.429-1.306-3.41-2.326C4.823 8.456 3.94 7.05 3.403 5.41c-.17-.517-.064-.927.331-1.265.179-.154.363-.303.554-.441.351-.256.704-.22.99.114.361.421.69.87.96 1.364.057.105.101.22.138.334.082.252.05.481-.15.666-.132.124-.268.244-.402.365-.164.15-.213.338-.167.562.159.762.606 1.319 1.15 1.808.324.291.68.526 1.095.651.216.066.389.01.526-.173l.24-.32c.218-.287.532-.38.841-.218.589.313 1.1.744 1.584 1.21.155.15.236.366.155.59-.213.599-.576 1.067-1.133 1.35a.703.703 0 01-.36.072zm1.324-4.643c-.035.12.062.316-.106.331-.187.017-.12-.193-.13-.3-.04-.554-.108-1.1-.336-1.605C9.942 4.609 8.994 3.93 7.68 3.815c-.067-.007-.136-.003-.203-.01-.082-.011-.177-.025-.168-.143.007-.1.092-.11.169-.114a2.41 2.41 0 01.57.05c1.627.286 2.829 1.646 2.985 3.373.014.158.032.314.046.465z" fill="#645CAC"/><path d="M10.13 7.09v.043c-.009.096.017.23-.114.236-.135.006-.127-.128-.13-.223a2.59 2.59 0 00-.097-.72c-.282-.892-.867-1.412-1.745-1.574-.1-.018-.202-.032-.301-.05-.074-.015-.134-.055-.122-.142.013-.09.082-.105.156-.098 1.064.082 1.979.718 2.268 1.914.048.2.065.408.097.613l-.012.001z" fill="#645CAC"/><path d="M8.095 5.613c.613.028 1.106.583 1.095 1.227-.001.078.001.173-.094.188-.12.02-.12-.09-.136-.17-.03-.133-.04-.271-.084-.397-.106-.317-.332-.497-.639-.57-.053-.014-.109-.015-.16-.03-.082-.022-.2-.021-.175-.156.017-.113.12-.088.193-.092z" fill="#645CAC"/></svg>
